X:1
T:Bethel, CM
T:Bethel, CM
T:The Kentucky Harmony, by Ananias Davisson, 1816
T:Public Domain Courtesy of the Cyber Hymnal™
C:The Kentucky Harmony, by Ananias Davisson, 1816
Z:Public Domain
Z:Courtesy of the Cyber Hymnal™
%%score ( 1 2 ) ( 3 4 )
L:1/8
Q:1/4=135
M:4/4
K:C
V:1 treble 
V:2 treble 
V:3 bass 
V:4 bass 
V:1
 [EG]4 | [EG]2 [FA]2 [Gc]4 | [Gd]4 [Ec]2 [FA]2 | !fermata!G4 [ce]4 | [cg]4 [Ae]4 | %5
 [Ac]2 [ce]2 !fermata![Bd]4 | [Bf]4 ([ce][Bd]) ([Ac][Bd]) | [ce]4 g3 e x2 | %8
 [Ad]2 (cA) !fermata!G4 | (G2 z [Fc]4) x | [Ad]4 [Gc]2 [FB]2 | !fermata![Ec]4 |] %12
V:2
 x4 | x8 | x8 | G4 x4 | x8 | x8 | x8 | x4 c6 | x2 A2 G4 | G3 A2 E x2 | x8 | x4 |] %12
V:3
 [C,C]4 | [C,G,]2 [D,F,]2 [C,E,]4 | [D,G,]4 [E,G,]2 [D,C]2 | !fermata![C,C]4 [E,A,]2 [G,C]2 | %4
 (E2 C2) A,2 C2 | [F,F]2 (EF) !fermata![G,G]4 | [D,D]4 ([E,E][D,D]) ([C,C][D,B,]) | %7
 [E,A,]4 [G,C]4 x2 | [D,A,]2 C2 !fermata![G,D]4 | (G2 E2) (C2 A,2) | [D,A,]4 [E,C]2 [G,D]2 | %11
 !fermata![C,E]4 |] %12
V:4
 x4 | x8 | x8 | x8 | C4 A,4 | x2 A,2 x4 | x8 | x10 | x2 (E,F,) x4 | C,4 F,4 | x8 | x4 |] %12

